!!!COM: Schiørring, Niels
!!!CDT: 1743-1798
!!!OPR@@DA: Choral-Bog
!!!ONM: 30b
!!!OTL@@DA: En anden Melodie
**kern	**fb	**kern	**kern	**kern	**kern	**kern	**kern	**kern
*part6	*part6	*part6	*part5	*part5	*part4	*part3	*part2	*part1
*staff8	*	*staff7	*staff6	*staff5	*staff4	*staff3	*staff2	*staff1
*clefF4	*	*clefC1	*clefF4	*clefC1	*clefF4	*clefC4	*clefC3	*clefC1
*mclefF4	*	*mclefG2	*mclefF4	*mclefG2	*mclefF4	*mclefGv2	*mclefG2	*mclefG2
*k[f#]	*	*k[f#]	*k[f#]	*k[f#]	*k[f#]	*k[f#]	*k[f#]	*k[f#]
*G:	*	*G:	*G:	*G:	*G:	*G:	*G:	*G:
*M4/4	*	*M4/4	*M4/4	*M4/4	*M4/4	*M4/4	*M4/4	*M4/4
*met(c)	*	*met(c)	*met(c)	*met(c)	*met(c)	*met(c)	*met(c)	*met(c)
*MM180	*	*MM180	*MM180	*MM180	*MM180	*MM180	*MM180	*MM180
*	*above	*	*	*	*	*	*	*
*	*slash	*	*	*	*	*	*	*
*	*	*	*^	*^	*	*	*	*
=1	=1	=1	=1	=1	=1	=1	=1	=1	=1	=1
2GG	.	2g	2ryy	2GG	2B	2d	2GG	2B	2d	2g
=2	=2	=2	=2	=2	=2	=2	=2	=2	=2	=2
2BB	6	2g	2G	2BB	2g	2d	2BB	2d	2d	2g
2GG	.	2g	2ryy	2GG	2B	2d	2GG	2d	2B	2g
=3	=3	=3	=3	=3	=3	=3	=3	=3	=3	=3
2C	.	2e	2G	2C	2e	2c	2C	2G	2c	2e
2BB	6	2g	[2G	2BB	2g	2d	2BB	2d	(4d	2g
.	.	.	.	.	.	.	.	.	[4g)	.
=4	=4	=4	=4	=4	=4	=4	=4	=4	=4	=4
2AA	7	2a	4G]	2AA	2a	2c	2AA	2c	(4g]	2a
.	6	.	4F#	.	.	.	.	.	4f#)	.
2GG	8	2b	4G	2GG	2b	[2d	2GG	[2d	(4g	2b
.	n7	.	[4Fn	.	.	.	.	.	[4fn)	.
=5	=5	=5	=5	=5	=5	=5	=5	=5	=5	=5
2C	9 nr4	2g	4F]	2C	2g	4d]	2C	(4d]	(4f]	2g
.	8 3	.	4E	.	.	4c	.	4c)	4e)	.
2G	.	2b	2B	2G	2b	2d	2G	2B	2d	2b
=6	=6	=6	=6	=6	=6	=6	=6	=6	=6	=6
2E	.	2b	1B	2E	2b	2g	2E	2G	2e	2b
2D	6	2b	.	2D	2b	2f#Xi	2D	2B	2f#Xi	2b
=7	=7	=7	=7	=7	=7	=7	=7	=7	=7	=7
2C#X	6	2ee	1A	2C#X	2ee	4a	2C#X	2A	(4a	2ee
.	5	.	.	.	.	4g	.	.	4g)	.
2D	.	2dd	.	2D	2dd	2f#	2D	2A	2f#	2dd
=8	=8	=8	=8	=8	=8	=8	=8	=8	=8	=8
2A	4	2dd	[2A	2A	2dd	2.e	2A	2A	2e	2dd
2AA	#	2cc#X	2A]	2AA	2cc#X	.	2AA	2A	2e	2cc#X
.	.	.	.	.	.	4g	.	.	.	.
=9	=9	=9	=9	=9	=9	=9	=9	=9	=9	=9
2D	.	2dd	2A	2D	2dd	2f#	2D	2A	2f#	2dd
2D#X	5	2b	2A	2D#X	2b	2f#	2D#X	2A	2f#	2b
=10	=10	=10	=10	=10	=10	=10	=10	=10	=10	=10
2E	.	2b	2G	2E	2b	2e	2E	2G	2e	2b
2GG#X	5	2b	2ryy	2GG#X	2dni	2e	2GG#X	2d	2e	2b
=11	=11	=11	=11	=11	=11	=11	=11	=11	=11	=11
2AA	.	2cc	1ryy	2AA	2c	2e	2AA	2c	2e	2cc
2D	6 n	2b	.	2D	2d	2fn	2D	2d	2fn	2b
=12	=12	=12	=12	=12	=12	=12	=12	=12	=12	=12
*	*	*	*	*	*	*	*^	*	*	*
2E	6 4	2a	2c	1E	2a	1e	2E	2E	2c	2e	2a
2EE	5 #	2g#X	2B	.	2g#X	.	2E	2EE	2B	2e	2g#X
*	*	*	*	*	*	*	*v	*v	*	*	*
=13	=13	=13	=13	=13	=13	=13	=13	=13	=13	=13
2AA	.	2a	1ryy	2AA	2c	2e	2AA	2c	2e	2a
2Gni	6	2b	.	2Gni	2e	2gni	2G	2e	2g	2b
=14	=14	=14	=14	=14	=14	=14	=14	=14	=14	=14
2F#	#6\ 4 3	2b	1ryy	2F#	2d#X	2a	2F#	2d#X	2a	2b
2E	.	2b	.	2E	[2e	[2g	2E	[2e	[2g	2b
=15	=15	=15	=15	=15	=15	=15	=15	=15	=15	=15
2C	6 5	2a	1ryy	2C	4e]	4g]	2C	(4e]	(4g]	2a
.	4 2	.	.	.	4dni	4f#	.	4di)	4f#)	.
2BB	6	2g	.	2BB	2d	2g	2BB	2d	2g	2g
=16	=16	=16	=16	=16	=16	=16	=16	=16	=16	=16
2C	6 5	2g	2.A	2C	2g	2e	2C	2A	2e	2g
2D	.	2f#	.	2D	2f#	2d	2D	2A	2d	2f#
.	.	.	4c	.	.	.	.	.	.	.
=17	=17	=17	=17	=17	=17	=17	=17	=17	=17	=17
2GG	.	2g	2ryy	2GG	2B	2d	2GG	2B	2d	2g
*	*	*	*v	*v	*	*	*	*	*	*
*	*	*	*	*v	*v	*	*	*	*
==	==	==	==	==	==	==	==	==
*-	*-	*-	*-	*-	*-	*-	*-	*-
!!!system-decoration: {(s1,s2,s3,s4)}{(s5,s6)}{(s7,s8)}
!!!RDF**kern: i = editorial accidental, paren
!!!RDF**kern: > = above
!!!RDF**kern: < = below
!!!AGN: chorale
!!!EED: Derek Remeš
!!!EED2: Victor Phan
!!!END: 2023/11/28
!!!ENC: Wolfgang Drescher
!!!EEV: 2023/12/12
!!!title: @{ONM}. @{OTL}
!!!verovio: mnumInterval 1